icons/marketplace-ebay.svg

<svg width="36" height="36" viewBox="0 0 36 36" fill="none" xmlns="http://www.w3.org/2000/svg">
    <rect x="0.5" y="0.5" width="35" height="35" rx="7.5" fill="white"/>
    <rect x="0.5" y="0.5" width="35" height="35" rx="7.5" stroke="#E9EAEC"/>
    <g clip-path="url(#clip0_2631_437)">
        <path d="M21.9925 18.3722C20.6293 18.4169 19.7823 18.6629 19.7823 19.5608C19.7823 20.1421 20.2458 20.7722 21.4222 20.7722C22.9996 20.7722 23.8415 19.9125 23.8415 18.5023L23.8416 18.3473C23.2886 18.3473 22.6067 18.3521 21.9925 18.3722ZM25.345 20.2353C25.345 20.6728 25.3577 21.1047 25.3958 21.4935H23.9974C23.9601 21.1733 23.9465 20.8551 23.9465 20.5465C23.1904 21.4759 22.2912 21.7431 21.0437 21.7431C19.1934 21.7431 18.2026 20.7651 18.2026 19.6339C18.2026 17.9955 19.5501 17.4179 21.8893 17.3643C22.529 17.3497 23.2476 17.3475 23.8416 17.3475L23.8415 17.1874C23.8415 16.0906 23.1382 15.6396 21.9195 15.6396C21.0147 15.6396 20.3479 16.014 20.2792 16.661H18.6996C18.8668 15.0479 20.5616 14.6399 22.0518 14.6399C23.8371 14.6399 25.345 15.2751 25.345 17.1633L25.345 20.2353Z"
              fill="#FFBC13"/>
        <path d="M8.98909 17.5722C8.93076 16.1659 7.9157 15.6396 6.83085 15.6396C5.66102 15.6396 4.72705 16.2316 4.56344 17.5722H8.98909ZM4.53103 18.572C4.61216 19.9365 5.55313 20.7435 6.84696 20.7435C7.74337 20.7435 8.54075 20.3782 8.80774 19.5837H10.3583C10.0567 21.1959 8.34365 21.7431 6.86918 21.7431C4.18819 21.7431 3 20.2666 3 18.2754C3 16.0835 4.22897 14.6399 6.89364 14.6399C9.0146 14.6399 10.5686 15.7499 10.5686 18.1726V18.572H4.53103Z"
              fill="#F12C2D"/>
        <path d="M14.4251 20.7148C15.8223 20.7148 16.7784 19.7091 16.7784 18.1915C16.7784 16.6741 15.8223 15.6683 14.4251 15.6683C13.0358 15.6683 12.0718 16.6741 12.0718 18.1915C12.0718 19.7091 13.0358 20.7148 14.4251 20.7148ZM10.5688 11.9961H12.0718L12.0717 15.7724C12.8084 14.8946 13.8233 14.6398 14.8224 14.6398C16.4974 14.6398 18.3579 15.7701 18.3579 18.2106C18.3579 20.2543 16.8783 21.743 14.7945 21.743C13.7038 21.743 12.6771 21.3517 12.0439 20.5765C12.0439 20.8861 12.0266 21.1982 11.9927 21.4934H10.5176C10.5432 21.0161 10.5687 20.4218 10.5687 19.941L10.5688 11.9961Z"
              fill="#0968F6"/>
        <path d="M33.0001 14.89L28.3518 24.0188H26.6686L28.005 21.4839L24.5068 14.89H26.2656L28.8398 20.0419L31.4067 14.89H33.0001Z"
              fill="#93C822"/>
    </g>
    <defs>
        <clipPath id="clip0_2631_437">
            <rect width="30" height="12.0225" fill="white" transform="translate(3 11.9962)"/>
        </clipPath>
    </defs>
</svg>

<svg xmlns="http://www.w3.org/2000/svg" fill="none" viewBox="0 0 36 36"><rect width="35" height="35" x=".5" y=".5" fill="currentColor" rx="7.5"/><rect width="35" height="35" x=".5" y=".5" stroke="currentColor" rx="7.5"/><g fill="currentColor" clip-path="url(#a)"><path d="M21.993 18.372c-1.364.045-2.21.29-2.21 1.189 0 .581.463 1.211 1.64 1.211 1.577 0 2.419-.86 2.419-2.27v-.155c-.553 0-1.235.005-1.85.025m3.352 1.863c0 .438.013.87.05 1.259h-1.398a8 8 0 0 1-.05-.947c-.757.929-1.656 1.196-2.903 1.196-1.85 0-2.841-.978-2.841-2.11 0-1.637 1.347-2.215 3.686-2.269.64-.014 1.359-.017 1.953-.017v-.16c0-1.096-.704-1.547-1.922-1.547-.905 0-1.572.374-1.64 1.021H18.7c.167-1.613 1.862-2.021 3.352-2.021 1.785 0 3.293.635 3.293 2.523zM8.99 17.572c-.06-1.406-1.074-1.932-2.16-1.932-1.169 0-2.103.592-2.267 1.932zm-4.459 1c.081 1.364 1.022 2.172 2.316 2.172.896 0 1.694-.366 1.96-1.16h1.551c-.301 1.612-2.014 2.16-3.489 2.16C4.19 21.743 3 20.266 3 18.274c0-2.191 1.229-3.635 3.894-3.635 2.12 0 3.675 1.11 3.675 3.533v.399z"/><path d="M14.425 20.715c1.397 0 2.353-1.006 2.353-2.523s-.956-2.524-2.353-2.524c-1.39 0-2.353 1.006-2.353 2.524 0 1.517.964 2.523 2.353 2.523m-3.856-8.719h1.503v3.776c.736-.877 1.751-1.132 2.75-1.132 1.675 0 3.536 1.13 3.536 3.57 0 2.044-1.48 3.533-3.564 3.533-1.09 0-2.117-.391-2.75-1.166 0 .31-.017.621-.051.916h-1.475c.025-.477.05-1.071.05-1.552zM33 14.89l-4.648 9.129h-1.683l1.336-2.535-3.498-6.594h1.759l2.574 5.152 2.567-5.152z"/></g><defs><clipPath id="a"><path fill="currentColor" d="M3 11.996h30V24.02H3z"/></clipPath></defs></svg>
